X: 1
T: Mouth Of The Tobique, The
M: 4/4
L: 1/8
R: reel
K: Gmaj
|: (3DEF|G2 BGcG BG |G2 BGcG BG |FGAB cAFA |GABc d2 (3DEF |
 G2 BGcG BG |G2 BGcG BG |FGAB cAFA |1 GBAF G2 (3DEF :|2 GBAF G2 (3def ||
|: g2 gf g2 ag |fdAd f2 gf |ecAG FGAF |GABc d2 ef |
g2 gf g2 ag |fdAd f2 gf |ecAG FGAF |1 GBAF G2 (3def :|2 GBAF G2 (3DEF ||
